X:5724
T:Gan Ainm
R:Reel
S:
H:
N:
D:Milltown Session
Z:Adrian Scahill
M:4/4
L:1/8
K:A
A2cA dBcB|ABcd efec|A2cA dAcA|BABc dBcB:||
cdef ecc2|ecac e3d|cdef ecdc|BABc d2cB:||


